Desktop/project_createx/public/images/About/like.svg

<svg width="48" height="48" viewBox="0 0 48 48" fill="none" xmlns="http://www.w3.org/2000/svg">
<g clip-path="url(#clip0_16400_551)">
<path d="M16.6393 31.014C16.465 30.8396 16.2231 30.7402 15.9766 30.7402C15.7299 30.7402 15.4881 30.8397 15.3137 31.014C15.1394 31.1893 15.0391 31.4312 15.0391 31.6768C15.0391 31.9243 15.1393 32.1652 15.3137 32.3396C15.4881 32.5148 15.7299 32.6143 15.9766 32.6143C16.2231 32.6143 16.465 32.5148 16.6393 32.3396C16.8137 32.1652 16.9141 31.9242 16.9141 31.6768C16.9141 31.4312 16.8137 31.1893 16.6393 31.014Z" fill="#7772F1"/>
<path d="M48 31.866C48 29.9727 46.6696 28.3853 44.8948 27.9866C45.315 27.3563 45.5605 26.5999 45.5605 25.7872C45.5605 23.5944 43.7766 21.8104 41.5837 21.8104H31.1512L32.516 17.7588C33.0668 16.1237 32.9351 14.3784 32.1455 12.8443C31.3558 11.3104 30.0118 10.1891 28.3612 9.6873L26.7164 9.18733C26.2384 9.04193 25.7317 9.29637 25.5621 9.7653L22.9775 16.9085C22.2439 18.9358 20.7972 20.6201 18.9039 21.6509L16.322 23.057C15.7666 22.3017 14.8724 21.8105 13.8652 21.8105H0.9375C0.419813 21.8105 0 22.2303 0 22.748V47.0622C0 47.5799 0.419813 47.9997 0.9375 47.9997H13.8652C14.9868 47.9997 15.9681 47.3905 16.4974 46.486L17.8207 47.005C19.5042 47.6651 21.2747 47.9998 23.0828 47.9998H39.4642C41.6571 47.9998 43.441 46.2159 43.441 44.023C43.441 43.2038 43.1918 42.4418 42.7656 41.8083C44.5067 41.3852 45.8036 39.8139 45.8036 37.9445C45.8036 37.1091 45.5441 36.3334 45.1023 35.6927C46.7722 35.2211 48 33.6848 48 31.866ZM44.0232 33.9677H41.8268H37.5213H34.3806C33.8629 33.9677 33.4431 34.3875 33.4431 34.9052C33.4431 35.4229 33.8629 35.8427 34.3806 35.8427H37.5213H41.8268C42.9858 35.8427 43.9286 36.7856 43.9286 37.9445C43.9286 39.1034 42.9858 40.0463 41.8268 40.0463H39.4642H34.7H34.3807C33.863 40.0463 33.4432 40.4661 33.4432 40.9838C33.4432 41.5015 33.863 41.9213 34.3807 41.9213H34.7H39.4642C40.6232 41.9213 41.566 42.8641 41.566 44.023C41.566 45.182 40.6232 46.1248 39.4642 46.1248H23.0828C21.5099 46.1248 19.9698 45.8336 18.5052 45.2593L16.9134 44.6351V35.4373C16.9134 34.9196 16.4936 34.4998 15.9759 34.4998C15.4583 34.4998 15.0384 34.9196 15.0384 35.4373V44.9515C15.0384 45.5983 14.5122 46.1246 13.8652 46.1246H1.875V23.6854H13.8652C14.5121 23.6854 15.0384 24.2116 15.0384 24.8586V28.0419C15.0384 28.5596 15.4583 28.9794 15.9759 28.9794C16.4936 28.9794 16.9134 28.5596 16.9134 28.0419V24.8698L19.8007 23.2976C22.0967 22.0474 23.851 20.005 24.7406 17.5464L27.0225 11.24L27.8158 11.4811C28.9773 11.8343 29.9228 12.6231 30.4784 13.7024C31.0341 14.7818 31.1266 16.0097 30.7391 17.1601L28.9579 22.4485C28.8615 22.7346 28.9088 23.0495 29.0848 23.2946C29.261 23.5398 29.5444 23.6852 29.8462 23.6852H41.5837C42.7427 23.6852 43.6855 24.6281 43.6855 25.787C43.6855 26.9459 42.7427 27.8888 41.5837 27.8888H34.3806C33.8629 27.8888 33.4431 28.3086 33.4431 28.8263C33.4431 29.344 33.8629 29.7638 34.3806 29.7638H37.5158C37.5177 29.7638 37.5195 29.764 37.5213 29.764H44.0232C45.1822 29.764 46.125 30.7069 46.125 31.8658C46.125 33.025 45.1822 33.9677 44.0232 33.9677Z" fill="#7772F1"/>
<path d="M10.2354 38.958C8.78744 38.958 7.60938 40.136 7.60938 41.5839C7.60938 43.0319 8.78734 44.21 10.2354 44.21C11.6835 44.21 12.8614 43.032 12.8614 41.5839C12.8614 40.1361 11.6834 38.958 10.2354 38.958ZM10.2354 42.335C9.82131 42.335 9.48437 41.998 9.48437 41.5839C9.48437 41.1699 9.82131 40.833 10.2354 40.833C10.6495 40.833 10.9864 41.1699 10.9864 41.5839C10.9864 41.998 10.6495 42.335 10.2354 42.335Z" fill="#7772F1"/>
<path d="M28.6745 0.274688C28.5001 0.100313 28.2584 0 28.0117 0C27.7652 0 27.5233 0.100219 27.349 0.274688C27.1746 0.449063 27.0742 0.690937 27.0742 0.9375C27.0742 1.18406 27.1745 1.42594 27.349 1.60022C27.5233 1.77469 27.7652 1.875 28.0117 1.875C28.2584 1.875 28.5002 1.77469 28.6745 1.60022C28.8489 1.42594 28.9492 1.18406 28.9492 0.9375C28.9492 0.690937 28.849 0.449063 28.6745 0.274688Z" fill="#7772F1"/>
<path d="M28.0117 3.5C27.494 3.5 27.0742 3.91981 27.0742 4.4375V6.71881C27.0742 7.2365 27.494 7.65631 28.0117 7.65631C28.5294 7.65631 28.9492 7.2365 28.9492 6.71881V4.4375C28.9492 3.91981 28.5295 3.5 28.0117 3.5Z" fill="#7772F1"/>
<path d="M40.3183 12.3047H34.5371C34.0193 12.3047 33.5996 12.7244 33.5996 13.2422C33.5996 13.7599 34.0194 14.1797 34.5371 14.1797H40.3183C40.836 14.1797 41.2558 13.7599 41.2558 13.2422C41.2558 12.7245 40.836 12.3047 40.3183 12.3047Z" fill="#7772F1"/>
<path d="M21.4903 12.3047H15.709C15.1913 12.3047 14.7715 12.7245 14.7715 13.2422C14.7715 13.7599 15.1912 14.1797 15.709 14.1797H21.4903C22.008 14.1797 22.4278 13.7599 22.4278 13.2422C22.4278 12.7245 22.008 12.3047 21.4903 12.3047Z" fill="#7772F1"/>
<path d="M23.3749 7.27747L20.6454 4.54794C20.2792 4.18194 19.6858 4.18194 19.3195 4.54794C18.9534 4.91403 18.9534 5.50766 19.3195 5.87384L22.0491 8.60337C22.2322 8.78637 22.4721 8.87797 22.712 8.87797C22.9519 8.87797 23.1918 8.78637 23.3749 8.60337C23.741 8.23728 23.741 7.64365 23.3749 7.27747Z" fill="#7772F1"/>
<path d="M36.707 4.54989C36.3408 4.18389 35.7473 4.18389 35.3811 4.54989L32.6515 7.27942C32.2854 7.64551 32.2854 8.23914 32.6515 8.60533C32.8346 8.78833 33.0745 8.87992 33.3145 8.87992C33.5545 8.87992 33.7943 8.78833 33.9774 8.60533L36.707 5.8758C37.0731 5.5097 37.0731 4.91608 36.707 4.54989Z" fill="#7772F1"/>
</g>
<defs>
<clipPath id="clip0_16400_551">
<rect width="48" height="48" fill="white"/>
</clipPath>
</defs>
</svg>

<svg xmlns="http://www.w3.org/2000/svg" width="48" height="48" fill="none"><g fill="#7772F1" clip-path="url(#a)"><path d="M16.64 31.014a.943.943 0 0 0-1.326 0 .95.95 0 0 0-.275.663.941.941 0 0 0 1.6.663.94.94 0 0 0 .275-.663c0-.246-.1-.488-.275-.663"/><path d="M48 31.866c0-1.893-1.33-3.48-3.105-3.88.42-.63.665-1.386.665-2.199a3.98 3.98 0 0 0-3.976-3.977H31.15l1.365-4.051c.55-1.635.42-3.38-.37-4.915a6.28 6.28 0 0 0-3.785-3.157l-1.645-.5a.937.937 0 0 0-1.154.578l-2.585 7.143a8.8 8.8 0 0 1-4.073 4.743l-2.582 1.406a3.05 3.05 0 0 0-2.457-1.246H.938a.94.94 0 0 0-.938.937v24.314c0 .518.42.938.938.938h12.927a3.05 3.05 0 0 0 2.632-1.514l1.324.519c1.683.66 3.454.995 5.262.995h16.381a3.98 3.98 0 0 0 3.977-3.977c0-.82-.25-1.581-.675-2.215a3.98 3.98 0 0 0 3.038-3.864c0-.835-.26-1.61-.702-2.251A3.98 3.98 0 0 0 48 31.866m-3.977 2.102h-9.642a.938.938 0 0 0 0 1.875h7.446c1.159 0 2.102.943 2.102 2.101a2.104 2.104 0 0 1-2.102 2.102H34.38a.938.938 0 0 0 0 1.875h5.084c1.16 0 2.102.943 2.102 2.102a2.104 2.104 0 0 1-2.102 2.102H23.083c-1.573 0-3.113-.291-4.578-.866l-1.592-.624v-9.198a.938.938 0 0 0-1.875 0v9.515c0 .646-.526 1.173-1.173 1.173H1.875v-22.44h11.99c.647 0 1.173.527 1.173 1.174v3.183a.938.938 0 0 0 1.875 0V24.87l2.888-1.572a10.68 10.68 0 0 0 4.94-5.752l2.282-6.306.793.241a4.42 4.42 0 0 1 2.662 2.221 4.42 4.42 0 0 1 .261 3.458l-1.781 5.288a.937.937 0 0 0 .888 1.237h11.738c1.159 0 2.101.943 2.101 2.102a2.104 2.104 0 0 1-2.101 2.102H34.38a.938.938 0 0 0 0 1.875h9.642c1.16 0 2.102.943 2.102 2.102s-.943 2.102-2.102 2.102"/><path d="M10.235 38.958a2.63 2.63 0 0 0-2.626 2.626 2.63 2.63 0 0 0 2.626 2.626 2.63 2.63 0 0 0 2.626-2.626 2.63 2.63 0 0 0-2.626-2.626m0 3.377a.752.752 0 0 1 0-1.502.752.752 0 0 1 0 1.502M28.675.275A.94.94 0 0 0 28.011 0c-.247 0-.489.1-.663.275a.95.95 0 0 0-.275.662c0 .247.1.489.275.663a.94.94 0 0 0 .663.275c.246 0 .488-.1.662-.275a.94.94 0 0 0 .275-.663c0-.246-.1-.488-.275-.662M28.012 3.5a.94.94 0 0 0-.938.938v2.28a.938.938 0 0 0 1.875 0v-2.28a.94.94 0 0 0-.937-.938M40.318 12.305h-5.78a.937.937 0 1 0 0 1.875h5.78a.938.938 0 0 0 0-1.875M21.49 12.305H15.71a.938.938 0 0 0 0 1.875h5.781a.938.938 0 0 0 0-1.875M23.375 7.277l-2.73-2.73a.938.938 0 0 0-1.325 1.327l2.73 2.73a.935.935 0 0 0 1.325 0 .94.94 0 0 0 0-1.327M36.707 4.55a.94.94 0 0 0-1.326 0l-2.73 2.73a.938.938 0 0 0 1.326 1.325l2.73-2.73a.94.94 0 0 0 0-1.325"/></g><defs><clipPath id="a"><path fill="#fff" d="M0 0h48v48H0z"/></clipPath></defs></svg>
